_includes/icons/color-google-maps.svg

<svg fill="#666" height="50" viewBox="0 0 48 48" width="50" xmlns="http://www.w3.org/2000/svg"><path d="m42 39v-30c0-1.65625-1.34375-3-3-3h-30c-1.65625 0-3 1.34375-3 3v30c0 1.65625 1.34375 3 3 3h30c1.65625 0 3-1.34375 3-3z" fill="#1c9957"/><path d="m9 42h30c1.65625 0-15-16-15-16s-16.65625 16-15 16z" fill="#3e7bf1"/><path d="m42 39v-30c0-1.65625-16 15-16 15s16 16.65625 16 15z" fill="#cbccc9"/><path d="m39 42c1.65625 0 3-1.34375 3-3v-.246094l-15.753906-15.753906-3.246094 3.246094 15.753906 15.753906z" fill="#efefef"/><path d="m42 9c0-1.65625-1.34375-3-3-3h-.246094l-32.753906 32.753906v.246094c0 1.65625 1.34375 3 3 3h.246094l32.753906-32.753906z" fill="#ffd73d"/><path d="m36 2c-5.523437 0-10 4.476563-10 10 0 6.8125 7.664063 9.296875 9.332031 19.851563.109375.679687.117188 1.148437.667969 1.148437s.558594-.46875.667969-1.148437c1.667969-10.554688 9.332031-13.039063 9.332031-19.851563 0-5.523437-4.476562-10-10-10z" fill="#d73f35"/><path d="m39.5 12c0 1.933594-1.566406 3.5-3.5 3.5s-3.5-1.566406-3.5-3.5 1.566406-3.5 3.5-3.5 3.5 1.566406 3.5 3.5z" fill="#752622"/><path d="m14.492188 12.53125v2.101563h2.996093c-.394531 1.273437-1.457031 2.183593-2.996093 2.183593-1.832032 0-3.316407-1.484375-3.316407-3.316406 0-1.835937 1.484375-3.320312 3.316407-3.320312.824218 0 1.578125.304687 2.15625.800781l1.546875-1.546875c-.976563-.890625-2.273438-1.433594-3.703125-1.433594-3.039063 0-5.5 2.464844-5.5 5.5s2.460937 5.5 5.5 5.5c4.8125 0 5.636718-4.316406 5.183593-6.460937z" fill="#fff"/></svg>

<svg xmlns="http://www.w3.org/2000/svg" viewBox="0 0 48 48" width="50" height="50" fill="#666"><path d="M 42 39 L 42 9 C 42 7.34375 40.65625 6 39 6 L 9 6 C 7.34375 6 6 7.34375 6 9 L 6 39 C 6 40.65625 7.34375 42 9 42 L 39 42 C 40.65625 42 42 40.65625 42 39 Z" fill="#1c9957"/><path d="M 9 42 L 39 42 C 40.65625 42 24 26 24 26 C 24 26 7.34375 42 9 42 Z" fill="#3e7bf1"/><path d="M 42 39 L 42 9 C 42 7.34375 26 24 26 24 C 26 24 42 40.65625 42 39 Z" fill="#cbccc9"/><path d="M 39 42 C 40.65625 42 42 40.65625 42 39 L 42 38.753906 L 26.246094 23 L 23 26.246094 L 38.753906 42 Z" fill="#efefef"/><path d="M 42 9 C 42 7.34375 40.65625 6 39 6 L 38.753906 6 L 6 38.753906 L 6 39 C 6 40.65625 7.34375 42 9 42 L 9.246094 42 L 42 9.246094 Z" fill="#ffd73d"/><path d="M 36 2 C 30.476563 2 26 6.476563 26 12 C 26 18.8125 33.664063 21.296875 35.332031 31.851563 C 35.441406 32.53125 35.449219 33 36 33 C 36.550781 33 36.558594 32.53125 36.667969 31.851563 C 38.335938 21.296875 46 18.8125 46 12 C 46 6.476563 41.523438 2 36 2 Z" fill="#d73f35"/><path d="M 39.5 12 C 39.5 13.933594 37.933594 15.5 36 15.5 C 34.066406 15.5 32.5 13.933594 32.5 12 C 32.5 10.066406 34.066406 8.5 36 8.5 C 37.933594 8.5 39.5 10.066406 39.5 12 Z" fill="#752622"/><path d="M 14.492188 12.53125 L 14.492188 14.632813 L 17.488281 14.632813 C 17.09375 15.90625 16.03125 16.816406 14.492188 16.816406 C 12.660156 16.816406 11.175781 15.332031 11.175781 13.5 C 11.175781 11.664063 12.660156 10.179688 14.492188 10.179688 C 15.316406 10.179688 16.070313 10.484375 16.648438 10.980469 L 18.195313 9.433594 C 17.21875 8.542969 15.921875 8 14.492188 8 C 11.453125 8 8.992188 10.464844 8.992188 13.5 C 8.992188 16.535156 11.453125 19 14.492188 19 C 19.304688 19 20.128906 14.683594 19.675781 12.539063 Z" fill="#fff"/></svg>
